app/dist/common/images/dycom-industries.svg

<svg height="18" width="18" xmlns="http://www.w3.org/2000/svg"><path d="m0 0h18v18h-18z" fill="#f0f3fa"/><path d="m7 7h3.827c.326 0 .547.068.66.252.131.22.152.394.166 1.146l2.347-2.398c-.1-1.041-.174-1.657-1.195-1.934-.179-.048-.228-.06-1.79-.066h-.515zm-3 2.864v4.136h2l3-3h-2v-4z" fill="#0f6ab0"/><path d="m9.763 14h-2.784l7.033-6.769-.012 2.605z" fill="#7cc245"/></svg>

<!-- by TradingView --><svg width="18" height="18" xmlns="http://www.w3.org/2000/svg"><path fill="#F0F3FA" d="M0 0h18v18H0z"/><path d="M7 7h3.827c.326 0 .547.068.66.252.131.22.152.394.166 1.146L14 6c-.1-1.041-.174-1.657-1.195-1.934-.179-.048-.228-.06-1.79-.066H10.5L7 7zM4 9.864V14h2l3-3H7V7L4 9.864z" fill="#0F6AB0"/><path d="M9.763 14H6.979l7.033-6.769L14 9.836 9.763 14z" fill="#7CC245"/></svg>
